X:1     %Music
T:My True Love Once He Courted Me
B:Kidson F, 1891, <I>Traditional Tunes</I>, Oxford, Taphouse and Son
Z:Frank Kidson
S:My Halliday, Newtondale, North Yorkshire
F:http://www.folkinfo.org/songs
M:3/4     %Meter
L:1/8     %
K:G
D A F |G3 D F G |D3 D G F |G2 A2 (B/c/) d | A3
w:My true love once he court-ed me, And stole a-way my li-*ber-ty;
G A B |d3 B/ B/ A D |G3 G A B |A3 G (E/D/) D | D3  |]
w:He stole my heart with my free good-will, I must con-fess I love_ him still. 